bundles/org.openhab.ui.habpanel/web/assets/icons/freepik-housethings/house-building-beside-a-pine-tree.svg

<svg xmlns="http://www.w3.org/2000/svg" width="593.152" height="593.153" style="enable-background:new 0 0 593.152 593.153" xml:space="preserve"><path d="M176.906 392.455h57.375v162.562h153V296.83H23.906v258.188h153V392.455zm76.5 133.875v-46.282c5.116 9.247 10.873 24.327 10.873 46.282h-10.873zm47.813 0h-27.377c0-29.185-9.438-47.679-15.912-56.715 23.782-7.708 36.988-44.819 43.29-69.52V526.33zm19.125 0V404.991c6.13 24.557 18.083 57.596 39.13 64.892-5.977 8.979-14.784 27.177-14.784 56.447h-24.346zm47.812 0h-13.913c0-28.257 8.912-45.546 13.913-53.053v53.053zm0-143.438v76.5c-23.725 0-37.676-49.744-42.486-76.5h42.486zm-114.75 0h41.788c-4.915 25.159-18.618 70.485-41.788 75.897v-75.897zm-95.625 0v76.5c-23.725 0-37.676-49.744-42.486-76.5h42.486zm-114.75 0h41.788c-4.905 25.159-18.608 70.485-41.788 75.897v-75.897zm0 143.438v-46.282c5.116 9.247 10.873 24.327 10.873 46.282H43.031zm47.813 0H63.466c0-29.185-9.438-47.679-15.912-56.715 23.782-7.708 36.988-44.819 43.29-69.52V526.33zm19.125 0V404.991c6.129 24.557 18.083 57.596 39.13 64.892-5.977 8.979-14.784 27.177-14.784 56.447h-24.346zm47.812 0h-13.914c0-28.257 8.913-45.546 13.914-53.053v53.053zM361.472 239.455H52.9L0 287.267h414.372zM421.276 440.267h71.193v114.75h28.687v-114.75h71.996L507.214 38.135z"/></svg>

<?xml version="1.0" encoding="iso-8859-1"?>
<!-- Generator: Adobe Illustrator 16.0.0, SVG Export Plug-In . SVG Version: 6.00 Build 0)  -->
<!DOCTYPE svg PUBLIC "-//W3C//DTD SVG 1.1//EN" "http://www.w3.org/Graphics/SVG/1.1/DTD/svg11.dtd">
<svg version="1.1" id="Capa_1" xmlns="http://www.w3.org/2000/svg" xmlns:xlink="http://www.w3.org/1999/xlink" x="0px" y="0px"
	 width="593.152px" height="593.153px" viewBox="0 0 593.152 593.153" style="enable-background:new 0 0 593.152 593.153;"
	 xml:space="preserve">
<g>
	<path d="M176.906,392.455h57.375v162.562h153V296.83H23.906v258.188h153V392.455z M253.406,526.33v-46.282
		c5.116,9.247,10.873,24.327,10.873,46.282H253.406z M301.219,526.33h-27.377c0-29.185-9.438-47.679-15.912-56.715
		c23.782-7.708,36.988-44.819,43.29-69.52V526.33z M320.344,526.33V404.991c6.13,24.557,18.083,57.596,39.13,64.892
		c-5.977,8.979-14.784,27.177-14.784,56.447H320.344z M368.156,526.33h-13.913c0-28.257,8.912-45.546,13.913-53.053V526.33z
		 M368.156,382.892v76.5c-23.725,0-37.676-49.744-42.486-76.5H368.156z M253.406,382.892h41.788
		c-4.915,25.159-18.618,70.485-41.788,75.897V382.892z M157.781,382.892v76.5c-23.725,0-37.676-49.744-42.486-76.5H157.781z
		 M43.031,382.892h41.788c-4.905,25.159-18.608,70.485-41.788,75.897V382.892z M43.031,526.33v-46.282
		c5.116,9.247,10.873,24.327,10.873,46.282H43.031z M90.844,526.33H63.466c0-29.185-9.438-47.679-15.912-56.715
		c23.782-7.708,36.988-44.819,43.29-69.52V526.33z M109.969,526.33V404.991c6.129,24.557,18.083,57.596,39.13,64.892
		c-5.977,8.979-14.784,27.177-14.784,56.447H109.969z M157.781,526.33h-13.914c0-28.257,8.913-45.546,13.914-53.053V526.33z"/>
	<polygon points="361.472,239.455 52.9,239.455 0,287.267 414.372,287.267 	"/>
	<polygon points="421.276,440.267 492.469,440.267 492.469,555.017 521.156,555.017 521.156,440.267 593.152,440.267 
		507.214,38.135 	"/>
</g>
<g>
</g>
<g>
</g>
<g>
</g>
<g>
</g>
<g>
</g>
<g>
</g>
<g>
</g>
<g>
</g>
<g>
</g>
<g>
</g>
<g>
</g>
<g>
</g>
<g>
</g>
<g>
</g>
<g>
</g>
</svg>
